images/Frame.svg

<svg fill="none" height="40" viewBox="0 0 48 40" width="48" xmlns="http://www.w3.org/2000/svg"><path d="m40.9688 21.1448h-4.6988c-.6394 0-1.2581.0876-1.8478.2497-1.1625-2.2962-3.5353-3.8744-6.27-3.8744h-8.3053c-2.7338 0-5.1066 1.5782-6.2691 3.8744-.5897-.1621-1.2084-.2497-1.8478-.2497h-4.69875c-3.87656 0-7.03125 3.1705-7.03125 7.0664v7.5489c0 2.3376 1.89281 4.2399 4.21875 4.2399h39.56245c2.326 0 4.2188-1.9023 4.2188-4.2399v-7.5489c0-3.8959-3.1538-7.0664-7.0312-7.0664zm-28.1522 3.4418v12.5868h-8.59785c-.77531 0-1.40625-.6341-1.40625-1.4133v-7.5489c0-2.3375 1.89281-4.2398 4.21875-4.2398h4.69875c.3816 0 .7509.0527 1.1034.1488-.0103.1545-.0168.31-.0168.4664zm19.5553 12.5868h-16.7428v-12.5868c0-2.3376 1.8918-4.2399 4.2187-4.2399h8.3053c2.326 0 4.2188 1.9023 4.2188 4.2399zm12.8156-1.4133c0 .7792-.6309 1.4133-1.4063 1.4133h-8.5978v-12.5868c0-.1573-.0065-.3128-.0168-.4673.3525-.0952.7218-.1479 1.1034-.1479h4.6988c2.3259 0 4.2187 1.9023 4.2187 4.2398z" fill="#fff"/><path d="m32.372 24.5866v12.5868h-16.7428v-12.5868c0-2.3376 1.8918-4.2399 4.2187-4.2399h8.3053c2.326 0 4.2188 1.9023 4.2188 4.2399z" fill="#f5bf2f"/><g fill="#fff"><path d="m9.38064 7.79858c-3.44531 0-6.24844 2.81722-6.24844 6.27972 0 3.4626 2.80313 6.2798 6.24844 6.2798 3.44536 0 6.24846-2.8172 6.24846-6.2798 0-3.4625-2.8031-6.27972-6.24846-6.27972zm0 9.73292c-1.89469 0-3.43594-1.549-3.43594-3.4532s1.54125-3.4531 3.43594-3.4531c1.89466 0 3.43596 1.5489 3.43596 3.4531s-1.5413 3.4532-3.43596 3.4532z"/><path d="m24.0001 0c-4.6031 0-8.3475 3.76313-8.3475 8.38932 0 4.62528 3.7444 8.38838 8.3475 8.38838s8.3475-3.7631 8.3475-8.38838c0-4.62619-3.7444-8.38932-8.3475-8.38932zm0 13.9511c-3.0516 0-5.535-2.4949-5.535-5.56178 0-3.0678 2.4834-5.56273 5.535-5.56273s5.535 2.49493 5.535 5.56273c0 3.06688-2.4834 5.56178-5.535 5.56178z"/><path d="m38.6194 7.79858c-3.4453 0-6.2484 2.81722-6.2484 6.27972.0009 3.4626 2.8031 6.2798 6.2484 6.2798s6.2484-2.8172 6.2484-6.2798c0-3.4625-2.8031-6.27972-6.2484-6.27972zm0 9.73292c-1.8947 0-3.4359-1.549-3.4359-3.4532.0009-1.9042 1.5412-3.4531 3.4359-3.4531s3.4359 1.5489 3.4359 3.4531-1.5412 3.4532-3.4359 3.4532z"/></g></svg>

<svg width="48" height="40" viewBox="0 0 48 40" fill="none" xmlns="http://www.w3.org/2000/svg">
<path d="M40.9688 21.1448H36.27C35.6306 21.1448 35.0119 21.2324 34.4222 21.3945C33.2597 19.0983 30.8869 17.5201 28.1522 17.5201H19.8469C17.1131 17.5201 14.7403 19.0983 13.5778 21.3945C12.9881 21.2324 12.3694 21.1448 11.73 21.1448H7.03125C3.15469 21.1448 0 24.3153 0 28.2112V35.7601C0 38.0977 1.89281 40 4.21875 40H43.7812C46.1072 40 48 38.0977 48 35.7601V28.2112C48 24.3153 44.8462 21.1448 40.9688 21.1448ZM12.8166 24.5866V37.1734H4.21875C3.44344 37.1734 2.8125 36.5393 2.8125 35.7601V28.2112C2.8125 25.8737 4.70531 23.9714 7.03125 23.9714H11.73C12.1116 23.9714 12.4809 24.0241 12.8334 24.1202C12.8231 24.2747 12.8166 24.4302 12.8166 24.5866ZM32.3719 37.1734H15.6291V24.5866C15.6291 22.249 17.5209 20.3467 19.8478 20.3467H28.1531C30.4791 20.3467 32.3719 22.249 32.3719 24.5866V37.1734ZM45.1875 35.7601C45.1875 36.5393 44.5566 37.1734 43.7812 37.1734H35.1834V24.5866C35.1834 24.4293 35.1769 24.2738 35.1666 24.1193C35.5191 24.0241 35.8884 23.9714 36.27 23.9714H40.9688C43.2947 23.9714 45.1875 25.8737 45.1875 28.2112V35.7601Z" fill="white"/>
<path d="M32.372 24.5866V37.1734H15.6292V24.5866C15.6292 22.249 17.521 20.3467 19.8479 20.3467H28.1532C30.4792 20.3467 32.372 22.249 32.372 24.5866Z" fill="#F5BF2F"/>
<path d="M9.38064 7.79858C5.93533 7.79858 3.1322 10.6158 3.1322 14.0783C3.1322 17.5409 5.93533 20.3581 9.38064 20.3581C12.826 20.3581 15.6291 17.5409 15.6291 14.0783C15.6291 10.6158 12.826 7.79858 9.38064 7.79858ZM9.38064 17.5315C7.48595 17.5315 5.9447 15.9825 5.9447 14.0783C5.9447 12.1741 7.48595 10.6252 9.38064 10.6252C11.2753 10.6252 12.8166 12.1741 12.8166 14.0783C12.8166 15.9825 11.2753 17.5315 9.38064 17.5315Z" fill="white"/>
<path d="M24.0001 0C19.397 0 15.6526 3.76313 15.6526 8.38932C15.6526 13.0146 19.397 16.7777 24.0001 16.7777C28.6032 16.7777 32.3476 13.0146 32.3476 8.38932C32.3476 3.76313 28.6032 0 24.0001 0ZM24.0001 13.9511C20.9485 13.9511 18.4651 11.4562 18.4651 8.38932C18.4651 5.32152 20.9485 2.82659 24.0001 2.82659C27.0517 2.82659 29.5351 5.32152 29.5351 8.38932C29.5351 11.4562 27.0517 13.9511 24.0001 13.9511Z" fill="white"/>
<path d="M38.6194 7.79858C35.1741 7.79858 32.371 10.6158 32.371 14.0783C32.3719 17.5409 35.1741 20.3581 38.6194 20.3581C42.0647 20.3581 44.8678 17.5409 44.8678 14.0783C44.8678 10.6158 42.0647 7.79858 38.6194 7.79858ZM38.6194 17.5315C36.7247 17.5315 35.1835 15.9825 35.1835 14.0783C35.1844 12.1741 36.7247 10.6252 38.6194 10.6252C40.5141 10.6252 42.0553 12.1741 42.0553 14.0783C42.0553 15.9825 40.5141 17.5315 38.6194 17.5315Z" fill="white"/>
</svg>
